packages/ffe-icons/icons/filled/md/diversity_4.svg

<svg xmlns="http://www.w3.org/2000/svg" height="24" viewBox="0 -960 960 960" width="24"><path d="m497.539-100.001 69.306-63.845q104.692-97.308 142-150.962Q746.153-368.462 746.153-425q0-20.23-4.885-38.615-4.884-18.384-15.422-36.384h61.784q29.984 0 51.176 21.241 21.193 21.24 21.193 51.067v291.511q0 15.486-10.395 25.832-10.394 10.347-25.759 10.347H497.539Zm-397.538-36.154v-291.408q0-30.051 20.789-51.243 20.788-21.193 51.519-21.193h61.23q-9.154 17.154-14.423 36.305-5.269 19.152-5.269 38.694 0 57.692 34.654 109.423t144.808 152.884l69.152 62.692H136.155q-15.365 0-25.759-10.395-10.395-10.394-10.395-25.759ZM759.973-560q-42.511 0-71.241-28.724-28.731-28.723-28.731-71.184 0-41.628 28.724-70.859 28.724-29.23 71.184-29.23 41.629 0 70.859 29.174 29.231 29.174 29.231 70.851 0 42.511-29.175 71.242Q801.65-560 759.973-560Zm-279.95-40q-50.561 0-85.291-34.678-34.731-34.678-34.731-85.196 0-49.662 34.678-84.893 34.678-35.23 85.197-35.23 49.662 0 84.892 35.136 35.231 35.135 35.231 84.839 0 50.561-35.136 85.292Q529.727-600 480.023-600ZM273.846-425q0 42.539 38.461 92.577 38.462 50.038 152.461 153.807l15.001 13.078 15.001-14.232q108-99.076 149.692-150.986 41.692-51.91 41.692-94.244 0-43.077-28.538-72.116-28.539-29.038-69.616-29.038-24.539 0-45.5 11.577-20.962 11.577-37.116 28.346l-25.999 26.615-25.769-26q-15.539-16.154-35.27-28.346T372-526.154q-43.308 0-70.731 29.038-27.423 29.039-27.423 72.116Zm-73.873-135q-42.511 0-71.241-28.724-28.731-28.723-28.731-71.184 0-41.628 28.724-70.859 28.724-29.23 71.185-29.23 41.628 0 70.858 29.174 29.231 29.174 29.231 70.851 0 42.511-29.175 71.242Q241.65-560 199.973-560Z"/></svg>

<svg xmlns="http://www.w3.org/2000/svg" height="24" viewBox="0 -960 960 960" width="24"><path d="m497.54-100 69.3-63.85q104.7-97.3 142-150.96 37.31-53.65 37.31-110.19 0-20.23-4.88-38.61Q736.38-482 725.85-500h61.78q29.98 0 51.18 21.24Q860-457.52 860-427.69v291.51q0 15.49-10.4 25.83Q839.21-100 823.84-100h-326.3ZM100-136.16v-291.4q0-30.05 20.79-51.25Q141.58-500 172.31-500h61.23q-9.15 17.16-14.42 36.31-5.27 19.15-5.27 38.69 0 57.69 34.65 109.42 34.66 51.73 144.81 152.89L462.46-100h-326.3q-15.37 0-25.76-10.4-10.4-10.39-10.4-25.76ZM759.97-560q-42.51 0-71.24-28.72Q660-617.45 660-659.91q0-41.63 28.73-70.86Q717.45-760 759.91-760q41.63 0 70.86 29.18Q860-701.65 860-659.97q0 42.51-29.18 71.24Q801.65-560 759.97-560Zm-279.95-40q-50.56 0-85.29-34.68Q360-669.36 360-719.87q0-49.67 34.68-84.9Q429.36-840 479.88-840q49.66 0 84.89 35.14Q600-769.73 600-720.02q0 50.56-35.14 85.29Q529.73-600 480.02-600ZM273.85-425q0 42.54 38.46 92.58t152.46 153.8l15 13.08 15-14.23q108-99.08 149.69-150.99 41.69-51.91 41.69-94.24 0-43.08-28.53-72.12-28.54-29.03-69.62-29.03-24.54 0-45.5 11.57-20.96 11.58-37.12 28.35l-26 26.61-25.76-26q-15.54-16.15-35.27-28.34-19.73-12.19-46.35-12.19-43.31 0-70.73 29.03-27.42 29.04-27.42 72.12Zm-73.88-135q-42.51 0-71.24-28.72Q100-617.45 100-659.91q0-41.63 28.73-70.86Q157.45-760 199.91-760q41.63 0 70.86 29.18Q300-701.65 300-659.97q0 42.51-29.18 71.24Q241.65-560 199.97-560Z"/></svg>
